X:0997
T:Gordon Castle.
M:C
L:1/8
Q:1/4=90 "Slow"
I: :: :|
N:bar 15 is |(eB)(ge) (^dc/B/) e2A2| in the book
Z:Jack Campin * www.campin.me.uk * 2009
K:E Minor
B>A|(G>FG)B   E2  e>f|({ef})gfe^d  {f}e2 (d>c)|(cB)(AG)  ({B}A2)B>c|e2 d>e     B2
g>a|(ba)(ge) (dB)(ge)|     (dB)(AG)   A2 (g>f)|(ef/g/) d>e  (Bg)AB |G2TF2 ({EF}E2):|
g>a|(bd)(BG)        (g>ab)G        |(Bd)(ed)              (B/A/B/g/) (BG)   |\
    (ef/g/) (fg/a/) (ga/b/) (fg/a/)|(gf/g/)    (e/g/^d/f/) e2        (ef/g/)|
     BG(Bd)         (ed)    Bg     |(e/d/c/B/) (c/B/A/G/)  A2         B>d   |\
    (eB)(ge)       (^dc/B/) eA     | G>B        A/G/F/G/   E2              :|
<end>
<start>
